!!!!SEGMENT: pl-kk--kk-i-385--012_anonim--stabat-mater.krn
!!!cenid: 17xx:1992
!!!COM: Anonim
!!!COM-rism: pe30004985
!!!CDT:
!!!CNT:
!!!OTL: Stabat Mater
!!!PDT:
!!!AGN: Sacred
!!!SMS-siglum: PL-Kk
!!!SMS-shelfmark: Kk.I.385
!!!NIFC-rismID: 1001143577
!!!URL-scan: http://repozytorium.nifc.pl/skany/pl-kk-nut--i-385
!!!ONB-nifc: UWAGA: obsada: S, A, T; S: skan 0006; A: skan 0013; T: skan 0020
!!!SMS-variant:
!!!SMS-altvar:
**kern	**text	**kern	**text	**kern	**text
*part3	*part3	*part2	*part2	*part1	*part1
*staff3	*staff3	*staff2	*staff2	*staff1	*staff1
*I"Tenore.	*	*I"Alto.	*	*I"Soprano.	*
*I'T	*	*I'A	*	*I'S	*
*clefC4	*	*clefC3	*	*clefC1	*
*k[b-e-]	*	*k[b-e-]	*	*k[b-e-]	*
*B-:	*	*B-:	*	*B-:	*
*M3/4	*	*M3/4	*	*M3/4	*
=1	=1	=1	=1	=1	=1
*2\right	*	*2\right	*	*2\right	*
!LO:TX:t=P:problem:all\right:global	!	!LO:TX:t=P:problem:all\right:global	!	!LO:TX:t=P:problem:all\right:global	!
!LO:TX:Bi:a:t=I2sty	!	!LO:TX:Bi:a:t=I2	!	!LO:TX:Bi:a:t=I2.sty	!
!LO:TX:t=P:problem:napis "I2sty" przed kluczem	!	!LO:TX:t=P:problem:napis "I2" przed kluczem	!	!LO:TX:t=P:problem:napis "I2.sty" przed kluczem	!
!LO:TX:a:i:t=Tenore.	!	!LO:TX:a:i:t=Alto.	!	!LO:TX:a:i:t=Soprano.	!
!LO:TX:a:i:t=Stabat Mater.	!	!LO:TX:a:i:t=Stabat Mater.	!	!LO:TX:a:i:t=Stabat Mater.	!
!	!	!LO:TX:i:a:t=in G. b.	!	!LO:TX:t=P:problem:znaki przykluczowe: e-, b-	!
2.d\	Sta-	2.g\	Sta-	2.b-\	Sta-
=2	=2	=2	=2	=2	=2
2.d\	-bat	2.f#X\	-bat	2.a\	-bat
=3	=3	=3	=3	=3	=3
2.d\	Ma-	2.a\	Ma-	2.cc\	Ma-
=4	=4	=4	=4	=4	=4
2.d\	-ter	2.g\	-ter	2.b-\	-ter
=5	=5	=5	=5	=5	=5
4B-\	do-	4b-\	do-	4dd\	do-
4c\	.	4a\	.	4cc\	.
4d\	-lo-	4g\	-lo-	4b-\	-lo-
=6	=6	=6	=6	=6	=6
4d\	-ro-	4g\	-ro-	4b-\	-ro-
4d\	-sa	4f#X\	-sa	4a\	-sa
4r	.	4r	.	4r	.
=7	=7	=7	=7	=7	=7
2B-\	jux-	4b-\	iu-	4dd\	ju-
.	.	8fn\L	.	8dd\L	.
.	.	8g\J	.	8ee-\J	.
4B-\	-ta	8f\L	-xta	8dd\L	-xta
.	.	8e-\J	.	8cc\J	.
!LO:LB:g=original	!	!LO:LB:g=original	!	!LO:LB:g=original	!
=8	=8	=8	=8	=8	=8
4F/	cru-	4e-\	cru-	4cc\	cru-
4F/	-cem	4d\	-cem	4b-\	-cem
4r	.	4r	.	4r	.
=9	=9	=9	=9	=9	=9
4c\	la-	4c\	la-	4a\	la-
4B-\	.	4d\	.	4b-\	.
!LO:SIC:l:v:s=-cri-	!	!LO:SIC:l:v:s=-cri-	!	!LO:SIC:l:v:s=-cri-	!
4A\	-chri-	4e-\	-chri-	4cc\	-chri-
=10	=10	=10	=10	=10	=10
4F/	-mo-	4e-\	-mo-	4cc\	-mo-
4F/	-sa	4d\	-sa	4b-\	-sa
4r	.	4r	.	4r	.
=11	=11	=11	=11	=11	=11
2c\	dum	2f#X\	dum	2cc\	dum
4c\	pen-	4a\	pen-	4cc\	pen-
=12	=12	=12	=12	=12	=12
4B-\	-de-	4b-\	-de-	4dd\	-de-
4c\	.	4a\	.	4cc\	.
4B-\	-bat	4g\	-bat	4b-\	-bat
=13	=13	=13	=13	=13	=13
4A/	fi-	4a\	fi-	4cc\	fi-
4G/	.	4g\	.	4b-\	.
4F#X/	-li-	4f#X\	-li-	4a\	-li-
!LO:LB:g=original	!	!	!	!	!
=14	=14	=14	=14	=14	=14
2A;>\	-us	2.f#X;>\	-us	2.cc;>\	-us
4r	.	.	.	.	.
!	!	!LO:LB:g=original	!	!LO:LB:g=original	!
=15	=15	=15	=15	=15	=15
2d\	dum	2a\	dum	2cc\	dum
4c\	pen-	4cc\	pen-	4ee-\	pen-
=16	=16	=16	=16	=16	=16
4B-\	-de-	4b-\	-de-	4dd\	-de-
4e-\	.	4a\	.	4cc\	.
4d\	-bat	4g\	-bat	4b-\	-bat
=17	=17	=17	=17	=17	=17
4e-\	fi-	4a\	fi-	4cc\	fi-
4d\	.	4g\	.	4b-\	.
4d\	-li-	4f#X\	-li-	4a\	-li-
=18	=18	=18	=18	=18	=18
2d\	-us	2g\	-us	2b-\	-us
4r	.	4r	.	4r	.
=19||	=19||	=19||	=19||	=19||	=19||
2.B-\	Cu-	2.fn\	cu-	2.dd\	cu-
=20	=20	=20	=20	=20	=20
2.c\	-jus	2.f\	-ius	2.ee-\	-ius
!LO:LB:g=original	!	!	!	!	!
=21	=21	=21	=21	=21	=21
8B-\	a-	8f\	a-	8dd\	a-
8B-\	-ni-	8f\	-ni-	8dd\	-ni-
4F/	-mam	4e-\	-mam	4cc\	-mam
!	!	!LO:LB:g=original	!	!	!
4F/	ge-	4d\	ge-	4b-\	ge-
=22	=22	=22	=22	=22	=22
.	.	16qqe-/LL	.	.	.
.	.	16qqd/	.	.	.
.	.	16qqc/	.	16qqcc/LL	.
.	.	16qqd/JJ	.	16qqb-/JJ	.
4F/	-men-	4d\	-men-	4b-\	-men-
4F/	-tem	4c\	-tem	4a\	-tem
4r	.	4r	.	4r	.
!	!	!	!	!LO:LB:g=original	!
=23	=23	=23	=23	=23	=23
2A\	con-	2e-\	con-	2cc\	con-
4A\	-tri-	4e-\	-tri-	4cc\	-tri-
=24	=24	=24	=24	=24	=24
2F/	-stan-	4d\	-stan-	4b-\	-sta-
.	.	4e-\	.	4cc\	.
4B-\	-tem	4f\	-tem	4dd\	-tem
=25	=25	=25	=25	=25	=25
8B-\	et	8f\	et	8dd\	et
8B-\	do-	8f\	do-	8dd\	do-
2F/	-len-	4e-\	-len-	4cc\	-len-
.	.	4d\	.	4b-\	.
=26	=26	=26	=26	=26	=26
2F/	-tem	2c\	-tem	2a\	-tem
4r	.	4r	.	4r	.
!	!	!LO:LB:g=original	!	!	!
=27	=27	=27	=27	=27	=27
2c\	per-	2f\	per-	2ee-\	per-
!LO:LB:g=original	!	!	!	!	!
4c\	-tran-	4f\	-tran-	4ee-\	-tran-
=28	=28	=28	=28	=28	=28
4B-\	-si-	4f\	-si-	4dd\	-si-
4e-\	.	4a\	.	4cc\	.
4B-\	-vit	4b-\	-vit	4dd\	-vit
=29	=29	=29	=29	=29	=29
8c\L	gla-	4g\	gla-	8ee-\L	gla-
8B-\J	.	.	.	8cc\J	.
4.A\	.	4.f\	.	4b-\	.
!	!	!	!	!LO:LB:g=original	!
.	.	.	.	4b-\	-di-
8A\	-di-	8f\	-di-	.	.
=30	=30	=30	=30	=30	=30
2B-\	-us	2f\	-us	2b-\	-us
4r	.	4r	.	4r	.
=31	=31	=31	=31	=31	=31
4e-\	per-	2f\	per-	4cc\	per-
4c\	.	.	.	4ee-\	.
4e-\	-tran-	4f\	-tran-	4cc\	-tran-
=32	=32	=32	=32	=32	=32
4B-\	-si-	4f\	-si-	4dd\	-si-
4e-\	.	4a\	.	4cc\	.
4B-\	-vit	4b-\	-vit	4dd\	-vit
=33	=33	=33	=33	=33	=33
8c\L	gla-	4g\	gla-	8ee-\L	gla-
8B-\J	.	.	.	8dd\J	.
4.A\	.	4.f\	.	4.cc\	.
8A\	-di-	8f\	-di-	8cc\	-di-
=34	=34	=34	=34	=34	=34
2B-\	-us.	2f\	-us.	2.dd\	-us.
4r	.	4r	.	.	.
==	==	==	==	==	==
*-	*-	*-	*-	*-	*-
!!!system-decoration: [(s1,s2,s3)]
!!!RDF**kern: > = above
!!!RDF**kern: < = below
!!!EED: Mateusz Mrugas
!!!EST: 2021-02-14
!!!ENC: Mateusz Solarz
!!!END: 2021-02-09
